X:256
T:The Shay Driver
O:No 256 Wm Clarke of Feltwell MS  1858
N:05/05/06 Not found tune in other contexts
I:abc2nwc
M:4/4
L:1/8
K:C
ef|g3/2e/2cc c2"^*"ce|dcBA G2GF|EGcB Afdc|
B2G3/2G/2 G2ef|g3/2e/2cc c2de|dcBA GFED|
EGcB AfdB|c2c3/2c/2 c2ef|gag^f g2g3/2g/2|
ag^fe f2g3/2g/2|agfe fedc|cege cBAG|A3/2B/2 c2B3/2c/2 d2|
cege fefg|abc'a gfed|e2c3/2c/2 c2|]

